X: 14430
T: Galway Rambler, The
R: reel
M: 4/4
K: Dmajor
|:D2 AD BDAF|DFAF EDB,C|DCDE FEFA|1 dBAF EDB,C:|2 dBAF EFGA||
d3 f e3 f|defd edBc|d2 df e2 ef|dBAF EFGA|
d3 f e3 f|defd eede|fded Bdce|dBAF EDB,C||

